static/cards/FrenchDeck/default/card_clubs_A.svg

<svg width="219" height="304" viewBox="0 0 219 304" fill="none" xmlns="http://www.w3.org/2000/svg">
<g filter="url(#filter0_d_18_633)">
<g clip-path="url(#clip0_18_633)">
<rect x="8" y="4" width="203" height="288" rx="10" fill="white"/>
<path d="M16.1909 44.2603C15.1899 44.2603 14.5293 43.6797 14.5293 42.7588C14.5293 42.3584 14.6294 41.978 14.7896 41.4976L23.0176 18.4951C23.5181 17.0938 24.2188 16.4531 25.5 16.4531C26.7812 16.4531 27.4819 17.0938 27.9824 18.4951L36.2104 41.4976C36.3706 41.938 36.4707 42.3584 36.4707 42.7388C36.4707 43.6797 35.8101 44.2603 34.7891 44.2603C33.8281 44.2603 33.2876 43.7998 32.9072 42.6187L30.605 35.792H20.375L18.0728 42.6187C17.6924 43.8198 17.1519 44.2603 16.1909 44.2603ZM21.3159 32.9692H29.6641L25.5601 20.7974H25.4199L21.3159 32.9692Z" fill="#211C1D"/>
<path d="M24.0324 72C23.815 72 23.6387 71.826 23.6387 71.6115C23.6387 70.8912 24.9316 68.2013 25.1901 66.0959C25.2179 65.8695 24.886 65.7854 24.7639 65.9791C24.0982 67.0359 23.1904 68.515 20.9784 68.4633L20.9355 68.4647C20.9068 68.4656 20.8781 68.4666 20.8492 68.4666C18.4471 68.4666 16.5 66.3541 16.5 63.7483C16.5 61.1425 18.4471 59.03 20.8492 59.03C21.3182 59.03 21.7697 59.1108 22.1928 59.26C22.2915 59.2948 22.3921 59.1811 22.3431 59.0897C21.9682 58.3927 21.7531 57.5823 21.7531 56.717C21.7531 54.1483 23.625 52 26 52C28.375 52 30.2469 54.1483 30.2469 56.717C30.2469 57.5823 30.0318 58.3927 29.6569 59.0897C29.6079 59.1811 29.7085 59.2948 29.8072 59.26C30.2303 59.1108 30.6818 59.03 31.1508 59.03C33.5529 59.03 35.5 61.1425 35.5 63.7483C35.5 66.3541 33.5529 68.4666 31.1508 68.4666C31.1219 68.4666 31.0932 68.4656 31.0645 68.4647L31.0216 68.4633C28.8096 68.515 27.9018 67.0359 27.2361 65.9791C27.114 65.7854 26.7821 65.8695 26.8099 66.0959C27.0684 68.2013 28.3613 70.8913 28.3613 71.6114C28.3613 71.826 28.185 72 27.9676 72H24.0324Z" fill="#211C1D"/>
<path d="M202.809 251.74C203.81 251.74 204.471 252.32 204.471 253.241C204.471 253.642 204.371 254.022 204.21 254.502L195.982 277.505C195.482 278.906 194.781 279.547 193.5 279.547C192.219 279.547 191.518 278.906 191.018 277.505L182.79 254.502C182.629 254.062 182.529 253.642 182.529 253.261C182.529 252.32 183.19 251.74 184.211 251.74C185.172 251.74 185.712 252.2 186.093 253.381L188.395 260.208L198.625 260.208L200.927 253.381C201.308 252.18 201.848 251.74 202.809 251.74ZM197.684 263.031L189.336 263.031L193.44 275.203L193.58 275.203L197.684 263.031Z" fill="#211C1D"/>
<path d="M194.968 224C195.185 224 195.361 224.174 195.361 224.389C195.361 225.109 194.068 227.799 193.81 229.904C193.782 230.131 194.114 230.215 194.236 230.021C194.902 228.964 195.81 227.485 198.022 227.537L198.065 227.535C198.093 227.534 198.122 227.533 198.151 227.533C200.553 227.533 202.5 229.646 202.5 232.252C202.5 234.858 200.553 236.97 198.151 236.97C197.682 236.97 197.23 236.889 196.807 236.74C196.708 236.705 196.608 236.819 196.657 236.91C197.032 237.607 197.247 238.418 197.247 239.283C197.247 241.852 195.375 244 193 244C190.625 244 188.753 241.852 188.753 239.283C188.753 238.418 188.968 237.607 189.343 236.91C189.392 236.819 189.292 236.705 189.193 236.74C188.77 236.889 188.318 236.97 187.849 236.97C185.447 236.97 183.5 234.858 183.5 232.252C183.5 229.646 185.447 227.533 187.849 227.533C187.878 227.533 187.907 227.534 187.935 227.535L187.978 227.537C190.19 227.485 191.098 228.964 191.764 230.021C191.886 230.215 192.218 230.131 192.19 229.904C191.932 227.799 190.639 225.109 190.639 224.389C190.639 224.174 190.815 224 191.032 224L194.968 224Z" fill="#211C1D"/>
<path d="M104.84 172C104.325 172 103.908 171.582 103.908 171.067C103.908 169.339 106.97 162.883 107.582 157.83C107.648 157.287 106.862 157.085 106.573 157.55C104.996 160.086 102.846 163.636 97.6068 163.512L97.5051 163.515C97.4372 163.518 97.3693 163.52 97.3008 163.52C91.6117 163.52 87 158.45 87 152.196C87 145.942 91.6117 140.872 97.3008 140.872C98.4114 140.872 99.4808 141.066 100.483 141.424C100.717 141.507 100.955 141.235 100.839 141.015C99.951 139.342 99.4416 137.397 99.4416 135.321C99.4416 129.156 103.875 124 109.5 124C115.125 124 119.558 129.156 119.558 135.321C119.558 137.397 119.049 139.342 118.161 141.015C118.045 141.235 118.283 141.507 118.517 141.424C119.519 141.066 120.589 140.872 121.699 140.872C127.388 140.872 132 145.942 132 152.196C132 158.45 127.388 163.52 121.699 163.52C121.631 163.52 121.563 163.518 121.495 163.515L121.393 163.512C116.154 163.636 114.004 160.086 112.427 157.55C112.138 157.085 111.352 157.287 111.418 157.83C112.03 162.883 115.092 169.339 115.092 171.067C115.092 171.582 114.675 172 114.16 172H104.84Z" fill="#211C1D"/>
</g>
</g>
<defs>
<filter id="filter0_d_18_633" x="0" y="0" width="219" height="304" filterUnits="userSpaceOnUse" color-interpolation-filters="sRGB">
<feFlood flood-opacity="0" result="BackgroundImageFix"/>
<feColorMatrix in="SourceAlpha" type="matrix" values="0 0 0 0 0 0 0 0 0 0 0 0 0 0 0 0 0 0 127 0" result="hardAlpha"/>
<feOffset dy="4"/>
<feGaussianBlur stdDeviation="4"/>
<feComposite in2="hardAlpha" operator="out"/>
<feColorMatrix type="matrix" values="0 0 0 0 0.614771 0 0 0 0 0.70094 0 0 0 0 0.806257 0 0 0 1 0"/>
<feBlend mode="normal" in2="BackgroundImageFix" result="effect1_dropShadow_18_633"/>
<feBlend mode="normal" in="SourceGraphic" in2="effect1_dropShadow_18_633" result="shape"/>
</filter>
<clipPath id="clip0_18_633">
<rect x="8" y="4" width="203" height="288" rx="10" fill="white"/>
</clipPath>
</defs>
</svg>

<svg xmlns="http://www.w3.org/2000/svg" width="219" height="304" fill="none" viewBox="0 0 219 304"><g filter="url(#a)"><g clip-path="url(#b)"><rect width="203" height="288" x="8" y="4" fill="#fff" rx="10"/><path fill="#211c1d" d="M16.19 44.26c-1 0-1.66-.58-1.66-1.501 0-.4.1-.781.26-1.261l8.228-23.003c.5-1.401 1.2-2.042 2.482-2.042 1.281 0 1.982.64 2.482 2.042l8.228 23.003c.16.44.26.86.26 1.24 0 .942-.66 1.522-1.68 1.522-.962 0-1.502-.46-1.883-1.641l-2.302-6.827h-10.23l-2.302 6.827c-.38 1.2-.921 1.641-1.882 1.641m5.126-11.29h8.348L25.56 20.796h-.14zM24.032 72a.39.39 0 0 1-.393-.388c0-.72 1.293-3.41 1.551-5.516.028-.227-.304-.31-.426-.117-.666 1.057-1.574 2.536-3.786 2.484l-.043.002-.086.002c-2.402 0-4.349-2.113-4.349-4.719 0-2.605 1.947-4.718 4.35-4.718.468 0 .92.08 1.343.23.098.035.2-.079.15-.17a5 5 0 0 1-.59-2.373C21.753 54.148 23.625 52 26 52s4.247 2.148 4.247 4.717a5 5 0 0 1-.59 2.373c-.05.091.052.205.15.17a4 4 0 0 1 1.344-.23c2.402 0 4.349 2.112 4.349 4.718s-1.947 4.719-4.35 4.719l-.085-.002-.043-.002c-2.212.052-3.12-1.427-3.786-2.484-.122-.194-.454-.11-.426.117.258 2.105 1.551 4.795 1.551 5.515a.39.39 0 0 1-.393.389zM202.809 251.74c1.001 0 1.662.58 1.662 1.501 0 .401-.1.781-.261 1.261l-8.228 23.003c-.5 1.401-1.201 2.042-2.482 2.042s-1.982-.641-2.482-2.042l-8.228-23.003c-.161-.44-.261-.86-.261-1.241 0-.941.661-1.521 1.682-1.521.961 0 1.501.46 1.882 1.641l2.302 6.827h10.23l2.302-6.827c.381-1.201.921-1.641 1.882-1.641m-5.125 11.291h-8.348l4.104 12.172h.14zM194.968 224a.39.39 0 0 1 .393.389c0 .72-1.293 3.41-1.551 5.515-.028.227.304.311.426.117.666-1.057 1.574-2.536 3.786-2.484l.043-.002.086-.002c2.402 0 4.349 2.113 4.349 4.719s-1.947 4.718-4.349 4.718c-.469 0-.921-.081-1.344-.23-.099-.035-.199.079-.15.17.375.697.59 1.508.59 2.373 0 2.569-1.872 4.717-4.247 4.717s-4.247-2.148-4.247-4.717c0-.865.215-1.676.59-2.373.049-.091-.051-.205-.15-.17-.423.149-.875.23-1.344.23-2.402 0-4.349-2.112-4.349-4.718s1.947-4.719 4.349-4.719l.086.002.043.002c2.212-.052 3.12 1.427 3.786 2.484.122.194.454.11.426-.117-.258-2.105-1.551-4.795-1.551-5.515a.39.39 0 0 1 .393-.389zM104.84 172a.933.933 0 0 1-.932-.933c0-1.728 3.062-8.184 3.674-13.237.066-.543-.72-.745-1.009-.28-1.577 2.536-3.727 6.086-8.966 5.962l-.102.003a5 5 0 0 1-.204.005c-5.69 0-10.301-5.07-10.301-11.324s4.612-11.324 10.3-11.324c1.111 0 2.18.194 3.183.552.234.083.472-.189.356-.409a12.1 12.1 0 0 1-1.397-5.694c0-6.165 4.433-11.321 10.058-11.321s10.058 5.156 10.058 11.321c0 2.076-.509 4.021-1.397 5.694-.116.22.122.492.356.409a9.4 9.4 0 0 1 3.182-.552c5.689 0 10.301 5.07 10.301 11.324s-4.612 11.324-10.301 11.324q-.102 0-.204-.005l-.102-.003c-5.239.124-7.389-3.426-8.966-5.962-.289-.465-1.075-.263-1.009.28.612 5.053 3.674 11.509 3.674 13.237a.933.933 0 0 1-.932.933z"/></g></g><defs><clipPath id="b"><rect width="203" height="288" x="8" y="4" fill="#fff" rx="10"/></clipPath><filter id="a" width="219" height="304" x="0" y="0" color-interpolation-filters="sRGB" filterUnits="userSpaceOnUse"><feFlood flood-opacity="0" result="BackgroundImageFix"/><feColorMatrix in="SourceAlpha" result="hardAlpha" values="0 0 0 0 0 0 0 0 0 0 0 0 0 0 0 0 0 0 127 0"/><feOffset dy="4"/><feGaussianBlur stdDeviation="4"/><feComposite in2="hardAlpha" operator="out"/><feColorMatrix values="0 0 0 0 0.614771 0 0 0 0 0.70094 0 0 0 0 0.806257 0 0 0 1 0"/><feBlend in2="BackgroundImageFix" result="effect1_dropShadow_18_633"/><feBlend in="SourceGraphic" in2="effect1_dropShadow_18_633" result="shape"/></filter></defs></svg>
